Adwaita++-Dark/actions/16/edit-find.svg

<svg height="16" width="16" xmlns="http://www.w3.org/2000/svg">
  <path d="m6.5 1a5.5 5.5 0 0 0 -5.5 5.5 5.5 5.5 0 0 0 5.5 5.5 5.5 5.5 0 0 0 3.1172-.969l3.6618 3.662a1 1 0 0 0 .721.307 1 1 0 0 0 1-1 1 1 0 0 0 -.303-.717l-3.67-3.6697a5.5 5.5 0 0 0 .973-3.1133 5.5 5.5 0 0 0 -5.5-5.5zm0 2a3.5 3.5 0 0 1 3.5 3.5 3.5 3.5 0 0 1 -3.5 3.5 3.5 3.5 0 0 1 -3.5-3.5 3.5 3.5 0 0 1 3.5-3.5z" fill="#e6ddff"/>
</svg>

<svg xmlns="http://www.w3.org/2000/svg" width="16" height="16" version="1.1">
 <path style="fill:#E6DDFF" d="M 6.5 1 A 5.5 5.5 0 0 0 1 6.5 A 5.5 5.5 0 0 0 6.5 12 A 5.5 5.5 0 0 0 9.6172 11.031 L 13.279 14.693 A 1 1 0 0 0 14 15 A 1 1 0 0 0 15 14 A 1 1 0 0 0 14.697 13.283 L 11.027 9.6133 A 5.5 5.5 0 0 0 12 6.5 A 5.5 5.5 0 0 0 6.5 1 z M 6.5 3 A 3.5 3.5 0 0 1 10 6.5 A 3.5 3.5 0 0 1 6.5 10 A 3.5 3.5 0 0 1 3 6.5 A 3.5 3.5 0 0 1 6.5 3 z"/>
</svg>
